src/assets/images/notfound_bg_part4.svg

<svg fill="none" height="939" viewBox="0 0 952 939" width="952" xmlns="http://www.w3.org/2000/svg"><path clip-rule="evenodd" d="m754.134 644.299c-30.67 72.877-134.918 65.899-213.602 79.692-75.275 13.196-157.421 42.688-223.547-3.059-65.128-45.057-64.34-135.08-84.961-210.373-20.586-75.163-69.576-156.25-33.064-220.571 36.651-64.568 127.47-61.431 201.382-75.949 72.927-14.324 154.897-54.197 216.933-6.217 61.186 47.322 27.91 140.429 50.741 213.242 24.711 78.811 116.621 150.754 86.118 223.235z" fill="#fff" fill-opacity=".16" fill-rule="evenodd"/></svg>

<svg width="952" height="939" viewBox="0 0 952 939" fill="none" xmlns="http://www.w3.org/2000/svg">
<path fill-rule="evenodd" clip-rule="evenodd" d="M754.134 644.299C723.464 717.176 619.216 710.198 540.532 723.991C465.257 737.187 383.111 766.679 316.985 720.932C251.857 675.875 252.645 585.852 232.024 510.559C211.438 435.396 162.448 354.309 198.96 289.988C235.611 225.42 326.43 228.557 400.342 214.039C473.269 199.715 555.239 159.842 617.275 207.822C678.461 255.144 645.185 348.251 668.016 421.064C692.727 499.875 784.637 571.818 754.134 644.299Z" fill="white" fill-opacity="0.16"/>
</svg>
